X:1
T:Dulcimer Scales
C:Walker Playtime
M:4/4
L:4/4
Q:1/4=60
K:D
|[D,A,D]|[E,B,E]|[F,CF]|[G,DG]|[A,EA]|[B,FB]|[CGc]|[DAd]|[EBe]|[Fcf]|[Gdg]|[Aea]|[Bfb]|[cgc']||
